icons/2_Variations/GitHub bg.var.svg

<svg width="1024" height="1024" viewBox="0 0 1024 1024" fill="none" xmlns="http://www.w3.org/2000/svg">
<g clip-path="url(#clip0_3_95)">
<path d="M512 1024C794.77 1024 1024 794.77 1024 512C1024 229.23 794.77 0 512 0C229.23 0 0 229.23 0 512C0 794.77 229.23 1024 512 1024Z" fill="#9ABEFF"/>
<path d="M511.901 262.199C370.401 262.199 255.801 376.899 255.801 518.299C255.801 631.499 329.201 727.499 430.901 761.299C443.701 763.699 448.401 755.799 448.401 748.999C448.401 742.899 448.201 726.799 448.101 705.499C376.901 720.999 361.801 671.099 361.801 671.099C350.101 641.499 333.301 633.599 333.301 633.599C310.101 617.699 335.101 617.999 335.101 617.999C360.801 619.799 374.301 644.399 374.301 644.399C397.101 683.599 434.301 672.299 448.901 665.699C451.201 649.099 457.801 637.799 465.101 631.399C408.201 624.999 348.401 602.999 348.401 504.799C348.401 476.799 358.301 453.999 374.801 436.099C371.901 429.599 363.301 403.599 377.001 368.299C377.001 368.299 398.501 361.399 447.401 394.599C467.901 388.899 489.701 386.099 511.401 385.999C533.201 386.099 554.901 388.899 575.401 394.599C624.101 361.499 645.501 368.299 645.501 368.299C659.301 403.599 650.601 429.599 648.101 436.099C664.401 453.999 674.401 476.899 674.401 504.799C674.401 603.199 614.501 624.899 557.501 631.199C566.501 638.899 574.801 654.599 574.801 678.599C574.801 712.899 574.501 740.399 574.501 748.699C574.501 755.399 579.001 763.399 592.101 760.899C694.701 727.399 768.001 631.399 768.001 518.299C768.001 376.899 653.301 262.199 511.901 262.199Z" fill="white"/>
</g>
<defs>
<clipPath id="clip0_3_95">
<rect width="1024" height="1024" fill="white"/>
</clipPath>
</defs>
</svg>

<svg xmlns="http://www.w3.org/2000/svg" width="1024" height="1024" fill="none">
   <g clip-path="url(#a)">
      <path fill="#9ABEFF" d="M512 1024c282.77 0 512-229.23 512-512S794.77 0 512 0 0 229.23 0 512s229.23 512 512 512Z"/>
      <path fill="#fff" d="M511.901 262.199c-141.5 0-256.1 114.7-256.1 256.1 0 113.2 73.4 209.2 175.1 243 12.8 2.4 17.5-5.5 17.5-12.3 0-6.1-.2-22.2-.3-43.5-71.2 15.5-86.3-34.4-86.3-34.4-11.7-29.6-28.5-37.5-28.5-37.5-23.2-15.9 1.8-15.6 1.8-15.6 25.7 1.8 39.2 26.4 39.2 26.4 22.8 39.2 60 27.9 74.6 21.3 2.3-16.6 8.9-27.9 16.2-34.3-56.9-6.4-116.7-28.4-116.7-126.6 0-28 9.9-50.8 26.4-68.7-2.9-6.5-11.5-32.5 2.2-67.8 0 0 21.5-6.9 70.4 26.3 20.5-5.7 42.3-8.5 64-8.6 21.8.1 43.5 2.9 64 8.6 48.7-33.1 70.1-26.3 70.1-26.3 13.8 35.3 5.1 61.3 2.6 67.8 16.3 17.9 26.3 40.8 26.3 68.7 0 98.4-59.9 120.1-116.9 126.4 9 7.7 17.3 23.4 17.3 47.4 0 34.3-.3 61.8-.3 70.1 0 6.7 4.5 14.7 17.6 12.2 102.6-33.5 175.9-129.5 175.9-242.6 0-141.4-114.7-256.1-256.1-256.1Z"/>
   </g>
   <defs>
      <clipPath id="a">
         <path fill="#fff" d="M0 0h1024v1024H0z"/>
      </clipPath>
   </defs>
</svg>
